!!!!SEGMENT: pl-kk--kk-i-34--002_anonim--rorate-caeli.krn
!!!cenid: 16xx:1332
!!!COM: Anonim
!!!COM-rismID: pe30004985
!!!CDT:
!!!CNT:
!!!OTL: Rorate caeli
!!!PDT:
!!!AGN: Sacred; Mass
!!!YEC: Copyright 2022 Narodowy Instytut Fryderyka Chopina (https://polishscores.org)
!!!YEM: License CC-BY-4.0 (https://creativecommons.org/licenses/by/4.0)
!!!SMS-siglum: PL-Kk
!!!SMS-shelfmark: Kk.I.34
!!!SMS-shelfwork: 002 W
!!!SMS-variant:
!!!SMS-altvar:
!!!NIFC-rismSourceID: 1001156612
!!!NIFC-rismChildID: 1001156625
!!!NIFC-islandoraID: pl-kk:15541
!!!URL-pdf-islandora: https://repozytorium.nifc.pl/islandora/object/pl-kk%3A15541/datastream/PDF/view
!!!URL-scan: https://polish.musicsources.pl/pl/lokalizacje/galeria/rekopisy/7129/1 @EN{Scan on Polish Music Sources Website} @PL{Skany w portalu Dziedzictwo Muzyki Polskiej w otwartym dostępie}
!!!IIIF:
!!!ONB-nifc: UWAGA: wg RISM obsada S, A, T, B. W zbiorze: 001 (Missa) – 1. Kyrie, 2. Et in terra, 3. Patrem, 4. Sanctus, 5. Agnus Dei; 002 – Rorate caeli, 003 – Rorate caeli
!!!AIN: 1 alto 1 empty 1 soprn 1 tenor
!!!key:
**kern	**text	**kern	**text	**kern	**text	**kern	**text
*part4	*	*part3	*	*part2	*	*part1	*
*staff4	*	*staff3	*	*staff2	*	*staff1	*
*Iempty	*	*Itenor	*	*Ialto	*	*Isoprn	*
*I"[Bass]	*	*I"[Tenor]	*	*I"[Alto]	*	*I"[Soprano]	*
*I'B	*	*I'T	*	*I'A	*	*I'S	*
*clefF4	*	*clefC4	*	*clefC3	*	*clefC1	*
*k[]	*	*k[]	*	*k[]	*	*k[]	*
*C:	*	*C:	*	*C:	*	*C:	*
*M2/1	*	*M2/1	*	*M2/1	*	*M2/1	*
=1	=1	=1	=1	=1	=1	=1	=1
!LO:TX:t=P:problem=w źródle inicjał R na początku pięciolinii	!	!LO:TX:t=P:problem=w źródle inicjał R na początku pięciolinii	!	!	!	!	!
!	!	!	!	!LO:TX:t=P:problem=w źródle inicjał R na początku pięciolinii	!	!LO:TX:t=P:problem=w źródle inicjał R na początku pięciolinii	!
!LO:TX:a:Bi:t=Pro vel de Tore\nPaschali.	!	!LO:TX:a:Bi:t=Pro v de tpre\nPaschali	!	!LO:TX:a:Bi:t=Sup eg[..]d verte\nde templo.	!	!	!
!	!	!	!	!LO:TX:a:Bi:t=Pro vel.\nDe tempore\nPaschali.	!	!	!
!	!	!	!	!	!	!LO:TX:a:Bi:t=Pro v de tempore\nPaschali	!
!LO:TX:a:Bi:t=7	!	!	!	!	!	!	!
00r	.	00r	.	0r	.	1.g	Ro-
.	.	.	.	.	.	2g/	-ra-
=2-	=2-	=2-	=2-	=2-	=2-	=2-	=2-
.	.	.	.	1.c	Ro-	2a\	.
.	.	.	.	.	.	1cc	.
.	.	.	.	2c/	-ra-	2b\	.
=3-	=3-	=3-	=3-	=3-	=3-	=3-	=3-
0r	.	1r	.	2d\	.	1a	-te
.	.	.	.	1f	.	.	.
.	.	1.G	Ro-	.	.	2g/	Cae-
.	.	.	.	2e\	.	1cc\	.
=4-	=4-	=4-	=4-	=4-	=4-	=4-	=4-
1r	.	.	.	1d	-te	.	.
.	.	2G/	-ra-	.	.	2b\	.
1.C	Ro-	2A\	.	2.c/	cae-	1cc	-li
.	.	1c\	.	.	.	.	.
.	.	.	.	4d\	.	.	.
=5-	=5-	=5-	=5-	=5-	=5-	=5-	=5-
.	.	.	.	2e\	.	2r	.
2C/	-ra-	2B\	-te	2g\	-li	2ee\	ro-
2D/	.	1A	Cae-	2.f\	ro-	4dd\	-ra-
.	.	.	.	.	.	8cc\L	.
.	.	.	.	.	.	8b\J	.
1F\	.	.	.	.	.	4a\	.
.	.	.	.	8e\L	.	4b\	.
.	.	.	.	8d\J	.	.	.
=6-	=6-	=6-	=6-	=6-	=6-	=6-	=6-
.	.	2G/	-li	4c\	.	1cc	te
.	.	.	.	4d\	.	.	.
*	*	*	*ij	*	*	*	*
2E\	.	2c\	Ro-	2e\	.	.	.
1D	-te	2c\	-ra-	1f	-ra-	1dd	Cae-
.	.	2B\	-te	.	.	.	.
=7-	=7-	=7-	=7-	=7-	=7-	=7-	=7-
1C	Cae-	2.c\	Cae-	4e\	-te	2g/	-li
.	.	.	.	4f\	.	.	.
.	.	.	.	1g	cae-	2g/	ro-
.	.	4B\	.	.	.	.	.
1D	.	2A/	-li	.	.	2.dd\	-ra-
*	*	*	*Xij	*	*	*	*
.	.	2d\	ro-	2f\	.	.	.
.	.	.	.	.	.	4cc\	-te
=8-	=8-	=8-	=8-	=8-	=8-	=8-	=8-
2GG/	-li	(>2.d\	-ra-	1g	-li	2.b\	de-
2G\	ro-	.	.	.	.	.	.
.	.	4c\)	-te	.	.	4a\	-ſu-
!	!	!	!	!LO:LB:g=original	!	!	!
2.G\	-ra-	2.B\	de-	2r	.	1g	-per
.	.	.	.	2g\	r-	.	.
4F\	-te	4A/	-ſu-	.	.	.	.
=9-	=9-	=9-	=9-	=9-	=9-	=9-	=9-
2.E\	de-	1G	-per	2.g\	-ra-	2r	.
.	.	.	.	.	.	2g/	ro-
4D/	-ſup-	.	.	4f\	-te	.	.
!	!	!	!	!	!	!LO:LB:g=original	!
1C	-(er)	2r	.	2.e\	de-	2.g/	-ra-
*	*	*	*ij	*	*	*	*
.	.	2G/	ro-	.	.	.	.
.	.	.	.	4d\	-ſup-	4f/	-te
=10-	=10-	=10-	=10-	=10-	=10-	=10-	=10-
2r	.	2.G/	-ra-	1c	-er	2.e/	de-
2C/	ro-	.	.	.	.	.	.
.	.	4F/	-te	.	.	4d/	-ſu-
!	!	!LO:LB:g=original	!	!	!	!	!
2.C/	-ra-	2.E/	de-	2r	.	1c	-(per)
.	.	.	.	2c/	ro-	.	.
4BB/	-te	4D/	-ſu-	.	.	.	.
=11-	=11-	=11-	=11-	=11-	=11-	=11-	=11-
2.AA/	de-	2C/	-per	2.c/	-ra-	2r	.
*	*	*	*Xij	*	*	*	*
*	*	*	*	*	*	*	*ij
.	.	2A\	ro-	.	.	2cc\	ro-
4GG/	-ſup-	.	.	4B/	-te	.	.
2FF/	-(er)	2c\	-ra-	4A/	de-	2.cc\	-ra-
.	.	.	.	4B/	.	.	.
*	*ij	*	*	*	*	*	*
2F\	ro-	2A\	.	4c/	.	.	.
.	.	.	.	4d/	.	4a\	-te
=12-	=12-	=12-	=12-	=12-	=12-	=12-	=12-
2.E\	-ra-	2B\	-te	2e\	.	1g	de-
.	.	2.c\	de-	2e\	-ſup-	.	.
4D/	-te	.	.	.	.	.	.
!LO:PB:g=original	!	!	!	!	!	!	!
2.D/	de-	.	.	1d	-(er)	4f#X/	-ſu-
.	.	4B\	.	.	.	2g/	.
.	.	2A/	-ſu-	.	.	.	.
4D/	-ſup-	.	.	.	.	4f#X/	.
=13-	=13-	=13-	=13-	=13-	=13-	=13-	=13-
2GG/	-(er)	1G	-per	2d\	et	1g	(per)
*	*Xij	*	*	*	*	*	*
2C/	et	.	.	4c\	nu-	.	.
.	.	.	.	4d\	.	.	.
*	*	*	*	*	*	*	*Xij
4C/	nu-	2G/	Et	4e\	.	2r	.
4D/	.	.	.	4f\	.	.	.
4E\	.	4G/	Nu-	2g\	-bes	2g/	et
4F\	.	4A/	.	.	.	.	.
=14-	=14-	=14-	=14-	=14-	=14-	=14-	=14-
2G\	-bes	4B\	.	2G/	et	4g\	nu-
.	.	4c\	.	.	.	4a\	.
2GG/	et	2d\	-bes	4G/	nu-	4b\	.
.	.	.	.	4A/	.	4cc\	.
4GG/	nu-	2D/	et	4B/	.	2dd\	-beſ
4AA/	.	.	.	4c/	.	.	.
4BB/	.	4D/	nu-	1d\	.	2d/	et
4C/	.	4E/	.	.	.	.	.
=15-	=15-	=15-	=15-	=15-	=15-	=15-	=15-
*lig	*	*	*	*	*	*	*
1D	-bes	4F/	.	.	.	4d/	nu-
.	.	4G/	.	.	.	4e/	.
.	.	4A\	-bes	2d\	-bes	4fny/	.
.	.	4B\	.	.	.	4g/	.
!	!	!	!	!LO:LB:g=original	!	!	!
1C	.	4c\	plu-	2e\	plu-	4a\	.
.	.	4B\	.	.	.	4b\	.
.	.	4A\	.	2e\	-ant	1cc\	-bes
.	.	4G/	.	.	.	.	.
*Xlig	*	*	*	*	*	*	*
=16-	=16-	=16-	=16-	=16-	=16-	=16-	=16-
0D	plu-	2F#X/	.	2r	.	.	.
.	.	1G	-ant	2d\	et	2b\	plu-
.	.	.	.	2d\	nu-	1a	.
.	.	2F#X/	Ju-	2d\	-bes	.	.
=17-	=17-	=17-	=17-	=17-	=17-	=17-	=17-
0GG	-ant	1G	-ſtu(m)	2.B/	plu-	2b\	-ant
.	.	.	.	.	.	2dd\	plu-
.	.	.	.	4A/	.	.	.
.	.	2r	.	0G	-ant	2dd\	-ant
.	.	2d\	et	.	.	2dd\	Ju-
!	!	!	!	!	!	!LO:LB:g=original	!
=18-	=18-	=18-	=18-	=18-	=18-	=18-	=18-
2r	.	2d\	nu-	.	.	2b\	-ſtu(m)
2G\	plu-	2d\	-bes	.	.	2b\	et
!	!	!LO:LB:g=original	!	!	!	!	!
2G\	-ant	2.B\	plu-	2r	.	2b\	nu-
2G\	Ju-	.	.	1g\	plu-	2b\	-bes
.	.	4A/	.	.	.	.	.
=19-	=19-	=19-	=19-	=19-	=19-	=19-	=19-
0E	-ſtu(m)	1G	-ant	.	.	2r	.
.	.	.	.	2g\	-ant	2cc\	plu-
.	.	2r	.	2.e\	Ju-	2cc\	-ant
.	.	2c\	plu-	.	.	2cc\	Ju-
.	.	.	.	4d\	.	.	.
=20-	=20-	=20-	=20-	=20-	=20-	=20-	=20-
2r	.	2c\	-ant	1c	-ſtu(m)	0a	-ſtu(m)
*	*ij	*	*	*	*	*	*
2F\	plu-	2c\	Ju-	.	.	.	.
2F\	-ant	1A	-ſtu(m)	2r	.	.	.
2F\	Ju-	.	.	2f\	et	.	.
=21-	=21-	=21-	=21-	=21-	=21-	=21-	=21-
0D	-ſtu(m)	2rF	.	2f\	Nu-	2r	.
.	.	2A/	et	2f\	-bes	2dd\	et
.	.	2A/	nu-	2d\	plu-	2dd\	nu-
.	.	2A/	-beſ	2d\	-ant	2dd\	-bes
*	*Xij	*	*	*	*	*	*
=22-	=22-	=22-	=22-	=22-	=22-	=22-	=22-
2r	.	1.G	plu-	2r	.	2.b\	plu-
1E	plu-	.	.	2e\	plu-	.	.
.	.	.	.	.	.	4a\	.
.	.	.	.	2e\	-ant	2g/	-ant
2C/	-nt	2E/	-ant	2e\	Ju-	2.cc\	plu-
!LO:LB:g=original	!	!	!	!	!	!	!
=23-	=23-	=23-	=23-	=23-	=23-	=23-	=23-
*	*	*	*	*custos:c	*	*	*
!	!	!LO:TX:b:t=P:problem=# below	!	!	!	!	!
1D	Ju-	4F#X/	Ju-	0d	-ſtu(m)	.	.
.	.	2G/	.	.	.	4b\	.
.	.	.	.	.	.	2a\	-ant
!	!	!LO:TX:b:t=P:problem=# below	!	!	!	!	!
.	.	4F#X/	.	.	.	.	.
2.GG/	-ſtu(m)	1G	-ſtu(m)	.	.	2.b\	plu-
4AA/	.	.	.	.	.	4cc\	.
!	!	!	!	!LO:LB:g=original	!	!	!
=24-	=24-	=24-	=24-	=24-	=24-	=24-	=24-
2BB/	.	2rF	.	2r	.	2dd\	.
1C	plu-	2.G/	plu-	1c	plu-	1ee	.
.	.	4A\	.	.	.	.	.
2BB/	-ant	2B\	-ant	2d\	-ant	2dd\	-ant
=25-	=25-	=25-	=25-	=25-	=25-	=25-	=25-
1C	Ju-	2G/	Ju-	1e	Ju-	2.cc\	Ju-
.	.	2E/	.	.	.	.	.
.	.	.	.	.	.	8b\L	.
*	*	*	*	*	*	*custos:b	*
.	.	.	.	.	.	8a\J	.
!	!	!	!	!	!	!LO:PB:g=original	!
2GG/	-ſtu(m)	2G/	-ſtu(m)	2d\	-ſtu(m)	2b\	-ſtu(m)
2GG/	a-	2r	.	2d\	a-	2b\	a-
=26-	=26-	=26-	=26-	=26-	=26-	=26-	=26-
*	*	*	*	*	*	*lig	*
2GG/	-pe-	2r	.	2.d\	-pe-	1g	-pe-
2GG/	-ri-	2G/	a-	.	.	.	.
.	.	.	.	4d\	-ri-	.	.
*	*	*	*	*	*	*col	*
1D	-a-	2G/	-pe-	1d	-a-	2.a\	.
.	.	2F#X/	-ri-	.	.	.	.
*	*	*	*	*	*	*Xcol	*
*	*	*	*	*	*	*Xlig	*
.	.	.	.	.	.	4a\	-ri-
=27-	=27-	=27-	=27-	=27-	=27-	=27-	=27-
*	*	*	*	*	*	*lig	*
1GG	-t(ur)	1G	-a-	1d	-t(ur)	1g	-a-
2r	.	2E/	-t(ur)	2r	.	1cc	.
2C/	a-	2G/	a-	2e\	a-	.	.
*	*	*	*	*	*	*Xlig	*
!	!	!LO:LB:g=original	!	!	!	!	!
=28-	=28-	=28-	=28-	=28-	=28-	=28-	=28-
2C/	-pe-	2A/	-pe-	2e\	-pe-	1cc	-t(ur)
2C/	-ri-	2A/	-ri-	2e\	-ri-	.	.
1F	-a-	1A	-a-	1f	-a-	2r	.
.	.	.	.	.	.	2cc\	a-
=29-	=29-	=29-	=29-	=29-	=29-	=29-	=29-
2F\	-tur	2A/	-t(ur)	2f\	-t(ur)	2cc\	-pe-
1A	te-	1c	ter-	1e	ter-	2cc\	-ri-
.	.	.	.	.	.	1a	-a-
2F\	.	2c\	-ra	2f\	.	.	.
=30-	=30-	=30-	=30-	=30-	=30-	=30-	=30-
1G	-ra	1Bn	.	2.d\	.	1g	-t(ur)
.	.	.	.	4e\	.	.	.
2D/	.	1A	.	1f	.	2r	.
*	*	*	*	*	*	*	*ij
1F\	et	.	.	.	.	2f/	a-
=31-	=31-	=31-	=31-	=31-	=31-	=31-	=31-
.	.	2r	.	1c	-ra	2g/	-pe-
2E\	.	2.c\	et	.	.	2g/	-ri-
2.D/	ger-	.	.	2r	.	2a\	-a-
.	.	8B\L	.	.	.	.	.
.	.	8A\J	.	.	.	.	.
.	.	2B\	ger-	1f\	et	4g/	-t(ur)
*	*	*	*	*	*	*	*Xij
4D/	-mi-	.	.	.	.	4f/	.
=32-	=32-	=32-	=32-	=32-	=32-	=32-	=32-
1C	-net	2.c\	.	.	.	2g/	ter-
.	.	.	.	2e\	.	1cc	.
.	.	4c\	-mi-	.	.	.	.
!LO:LB:g=original	!	!	!	!	!	!	!
!	!	!LO:TX:a:Bi:t=Vi	!	!	!	!	!
!	!	!	!	!LO:TX:t=P:problem=w źródle kropka nad nutą	!	!	!
2rF	.	1G	-net	2.d\	ger-	.	.
2G\	et	.	.	.	.	2b\	.
.	.	.	.	4d\	-mi-	.	.
!	!	!LO:LB:g=original	!	!LO:LB:g=original	!	!	!
=33-	=33-	=33-	=33-	=33-	=33-	=33-	=33-
!	!	!LO:TX:a:Bi:t=de	!	!	!	!	!
2A\	ger-	2r	.	2c/	-net	1a	.
*	*	*	*ij	*	*	*	*
2F\	.	2c\	et	2f\	et	.	.
!	!	!	!	!	!	!LO:TX:a:Bi:t=3	!
2.G\	.	(>2c\	ger-	1d	.	0.g	-ra
.	.	2B\)	.	.	.	.	.
4G\	-mi-	.	.	.	.	.	.
=34-	=34-	=34-	=34-	=34-	=34-	=34-	=34-
2C/	-net	2.c\	.	2.e\	ger-	.	.
1c	et	.	.	.	.	.	.
.	.	4c\	-mi-	4d\	.	.	.
*	*	*custos:c	*	*	*	*	*
.	.	1G	-net	4e\	.	.	.
.	.	.	.	4f\	.	.	.
2B\	.	.	.	1g\	.	.	.
*	*	*	*Xij	*	*	*	*
!	!	!LO:LB:g=original	!	!	!	!	!
=35-	=35-	=35-	=35-	=35-	=35-	=35-	=35-
1A	.	2r	.	.	.	2r	.
*	*	*	*ij	*	*	*	*
.	.	2c\	et	2f#X\	-mi-	1cc	et
2.G\	ger-	1d	ger-	2g\	-net	.	.
*	*	*	*	*	*ij	*	*
.	.	.	.	2g\	et	2b\	.
4F\	.	.	.	.	.	.	.
=36-	=36-	=36-	=36-	=36-	=36-	=36-	=36-
2E\	.	4e\	.	2g\	ger-	2.cc\	ger-
.	.	4E/	.	.	.	.	.
2C/	.	2.G/	.	2e\	-mi-	.	.
.	.	.	.	.	.	4b\	mi-
*	*	*	*	*	*	*lig	*
2.D/	.	.	.	1d	-net	1a	-net
!	!	!LO:TX:b:t=P:problem=# below	!	!	!	!	!
.	.	8F#X/L	.	.	.	.	.
.	.	8E/J	.	.	.	.	.
!	!	!LO:TX:a:t=P:problem=# above	!	!	!	!	!
.	.	2F#Xi/	-mi-	.	.	.	.
4D/	mi-	.	.	.	.	.	.
*	*	*	*	*	*Xij	*	*
=37-	=37-	=37-	=37-	=37-	=37-	=37-	=37-
*	*	*	*	*lig	*	*	*
1GG	-net	1G	-net	1B-X	Sal-	1g	.
*	*	*	*Xij	*	*	*	*
*	*	*	*	*	*	*Xlig	*
!	!	!	!	!	!	!LO:LB:g=original	!
*	*	*	*	*	*	*lig	*
!LO:TX:t=P:problem=w źródle wymazany ♭	!	!	!	!	!	!	!
2BB/	Sal-	2rF	.	1d	.	1f	Sal-
*lig	*	*lig	*	*	*	*	*
1D\	.	1Fny/	Sal-	.	.	.	.
*	*	*	*	*Xlig	*	*	*
=38-	=38-	=38-	=38-	=38-	=38-	=38-	=38-
.	.	.	.	1fny	-va-	1a	.
1F	.	1A	.	.	.	.	.
*Xlig	*	*Xlig	*	*	*	*Xlig	*
.	.	.	.	2g\	.	1cc	.
2F\	-va-	1c\	.	2f\	.	.	.
=39-	=39-	=39-	=39-	=39-	=39-	=39-	=39-
1C	-to-	.	.	[>2.e\	.	2cc\	-va-
.	.	2c\	-va-	.	.	2.cc\	-to-
.	.	.	.	4e\]	-to-	.	.
1G	.	2d\	-to-	1d	-re(m)	.	.
.	.	.	.	.	.	8b\L	.
.	.	.	.	.	.	8a\J	.
.	.	2B\	.	.	.	2b\	-re(m)
!	!	!LO:LB:g=original	!	!	!	!	!
=40-	=40-	=40-	=40-	=40-	=40-	=40-	=40-
2C/	-re(m)	2G/	-re(m)	2r	.	2.cc\	Sal-
2C/	Sal-	2.c\	Sal-	2c/	Sal-	.	.
.	.	.	.	.	.	4b\	.
2.F\	-va-	.	.	2c/	-va-	2a\	.
.	.	4B\	.	.	.	.	.
.	.	4A/	.	2.f\	-to-	2a\	-va-
4E\	.	4G/	.	.	.	.	.
=41-	=41-	=41-	=41-	=41-	=41-	=41-	=41-
4D\	.	2A/	.	.	.	1dd	-to-
4C/	.	.	.	4e\	.	.	.
!LO:TX:a:t=P:problem=♭ above	!	!	!	!	!	!	!
2BB-Xi/	.	2.B-X\	-va-	2d\	.	.	.
!	!	!	!	!LO:LB:g=original	!	!	!
1C	-to-	.	.	4e\	.	2cc\	-[rem]
.	.	4A/	.	2f\	.	.	.
.	.	2G/	.	.	.	2cc\	al-
.	.	.	.	4e\	.	.	.
!LO:LB:g=original	!	!	!	!	!	!	!
=42-	=42-	=42-	=42-	=42-	=42-	=42-	=42-
2FF/	-re(m)	2.A/	-to-	1f	-re(m)	2cc\	-le-
2F\	al-	.	.	.	.	2cc\	-lu-
.	.	4Bny\	.	.	.	.	.
2F\	-le-	1c	-re(m)	2re	.	1a	-ia
2F\	-lu-	.	.	2f\	al-	.	.
=43-	=43-	=43-	=43-	=43-	=43-	=43-	=43-
*	*	*	*	*	*	*	*ij
1D	-ia	2r	.	2f\	-le-	2.dd\	al-
.	.	2.d\	al-	2f\	-lu-	.	.
.	.	.	.	.	.	4cc\	.
2.G\	al-	.	.	1d	-ia	4b\	.
.	.	4c\	.	.	.	4a\	.
.	.	4B\	.	.	.	1g\	le-
4F\	.	4A\	.	.	.	.	.
=44-	=44-	=44-	=44-	=44-	=44-	=44-	=44-
*	*	*	*	*	*ij	*	*
4E\	.	2B\	-le-	1e	al-	.	.
4D\	.	.	.	.	.	.	.
2C/	-le-	2c\	.	.	.	1g	-lu-
1D	-lu-	1A	-lu-	2d\	-le-	.	.
!	!	!	!	!	!	!LO:TX:a:t=P:problem=# above	!
.	.	.	.	2.d\	-lu-	2f#Xi/	.
=45-	=45-	=45-	=45-	=45-	=45-	=45-	=45-
2G\	-ia	2.B\	.	.	.	2g/	-ia
.	.	.	.	4e\	.	.	.
*	*	*	*	*	*	*	*Xij
*	*ij	*	*	*	*	*	*ij
2D/	al-	.	.	2f\	.	2dd\	al-
.	.	4A/	.	.	.	.	.
!	!	!LO:TX:t=P:global:problem=kreska oddechu na różnych liniach [rozdzielacz słów / znak oddechu]	!	!	!	!	!
2E/	-le-	1G,<	-ia	1e	-ia	2b\	-le-
!LO:TX:t=P:global:problem=kreska oddechu na różnych liniach [rozdzielacz słów / znak oddechu]	!	!	!	!	!	!	!
2C,</	-lu-	.	.	.	.	2cc\	-lu-
*	*	*	*	*	*Xij	*	*
=46-	=46-	=46-	=46-	=46-	=46-	=46-	=46-
*	*	*	*ij	*	*	*	*
2D/	-ia	2d\	al-	2f#X\	al-	2a\	-ia
*	*Xij	*	*	*	*	*	*Xij
2G\	al-	2B\	-le-	2g\	-le-	2r	.
!	!	!	!	!	!	!LO:LB:g=original	!
2A\	-le-	2c\	-lu-	2e\	-lu-	2r	.
2F\	-lu-	2A\	-ia	2fny\	-ia	2cc\	al-
*	*	*	*Xij	*	*	*	*
=47-	=47-	=47-	=47-	=47-	=47-	=47-	=47-
*	*	*	*ij	*	*ij	*	*
2G\	-ia	2B\	al-	2d\	al-	2b\	-le-
*	*ij	*	*	*	*	*	*
!LO:TX:t=P:problem=kreska pseudotaktowa	!	!	!	!	!	!	!
2C/	al-	2G/	-le-	2e\	-le-	2cc\	-lu-
!	!	!LO:TX:a:t=P:problem=# above	!	!	!	!	!
2D/	-le-	2F#Xi/	-lu-	1d	-lu-	2a\	-ia
*	*	*	*	*	*	*	*ij
2BBny/	-lu-	2G/	-ia	.	.	2dd\	al-
*	*	*	*Xij	*	*	*	*
=48-	=48-	=48-	=48-	=48-	=48-	=48-	=48-
*	*	*	*ij	*	*	*	*
1C	-ia	4E/	al-	1e	-ia	2.cc\	-le-
.	.	4Fny/	.	.	.	.	.
.	.	4G/	.	.	.	.	.
.	.	4A/	.	.	.	8b\L	.
.	.	.	.	.	.	8a\J	.
*	*Xij	*	*	*	*Xij	*	*
*	*ij	*	*	*	*	*	*
2GG/	al-	1B	-le-	2r	.	1.g	-lu-
*	*	*	*	*	*ij	*	*
2GG/	-le-	.	.	2d\	al-	.	.
=49-	=49-	=49-	=49-	=49-	=49-	=49-	=49-
1D	-lu-	1A	-lu-	2d\	-le-	.	.
!	!	!	!	!	!	!LO:TX:a:t=P:problem=# above	!
.	.	.	.	2d\	-lu-	2f#Xi/	.
!LO:TX:t=P:problem=w źródle fermata nad i pod nutą	!	!LO:TX:t=P:problem=w źródle fermata nad i pod nutą	!	!	!	!	!
!	!	!	!	!LO:TX:t=P:problem=w źródle fermata nad i pod nutą	!	!LO:TX:t=P:problem=w źródle fermata nad i pod nutą	!
!LO:N:vis=0	!	!LO:N:vis=0	!	!LO:N:vis=0	!	!LO:N:vis=0	!
1GG;;	-ia	1B;;	-ia	1d;;	-ia	1g;;	-ia
*	*Xij	*	*Xij	*	*Xij	*	*Xij
!LO:LB:g=original	!	!LO:LB:g=original	!	!LO:LB:g=original	!	!	!
=50-	=50-	=50-	=50-	=50-	=50-	=50-	=50-
*M2/1	*	*M2/1	*	*M2/1	*	*M2/1	*
!LO:TX:t=P:problem=w źródle inicjał B na początku pięciolinii	!	!	!	!	!	!	!
!	!	!LO:TX:t=P:problem=w źródle inicjał B na początku pięciolinii	!	!LO:TX:t=P:problem=w źródle inicjał B na początku pięciolinii	!	!	!
!	!	!	!	!	!	!LO:TX:t=P:problem=w źródle inicjał B na początku części	!
00r	.	0r	.	1d	Be-	00r	.
.	.	.	.	1e	.	.	.
=51-	=51-	=51-	=51-	=51-	=51-	=51-	=51-
.	.	1G	Be-	2d\	-ne-	.	.
.	.	.	.	1g	-di-	.	.
.	.	1A	.	.	.	.	.
.	.	.	.	2f#X\	.	.	.
=52-	=52-	=52-	=52-	=52-	=52-	=52-	=52-
1C	Be-	2G/	-ne-	1g	-xi-	0r	.
.	.	1c	-di-	.	.	.	.
1D	.	.	.	1fny	.	.	.
.	.	2B\	.	.	.	.	.
=53-	=53-	=53-	=53-	=53-	=53-	=53-	=53-
2C/	-ne-	2c\	-xi-	2e\	-ſti	1r	.
1F	-di-	4B\	.	2.c\	Do-	.	.
.	.	4A\	.	.	.	.	.
.	.	1G	.	.	.	1g	Be-
.	.	.	.	4d\	.	.	.
2E\	.	.	.	1e\	.	.	.
=54-	=54-	=54-	=54-	=54-	=54-	=54-	=54-
1F	-xi-	2F/	-ſti	.	.	1a	.
*	*	*	*ij	*	*	*	*
.	.	2A\	Be-	2d\	-mi-	.	.
*lig	*	*	*	*	*	*	*
1E	-ſti	2B\	-ne-	1e	-ne	2g/	-ne-
.	.	2c\	-di-	.	.	1cc\	-di-
=55-	=55-	=55-	=55-	=55-	=55-	=55-	=55-
1D	.	1d	-xi-	2re	.	.	.
.	.	.	.	1f	Do-	2b\	-xi-
*Xlig	*	*	*	*	*	*	*
2.C/	Do-	2G/	-ſti	.	.	1cc	-ſti
*	*	*	*Xij	*	*	*	*
.	.	(>1e\	Do-	4e\	.	.	.
4D\	.	.	.	4f\	.	.	.
=56-	=56-	=56-	=56-	=56-	=56-	=56-	=56-
*	*	*	*	*	*	*lig	*
!	!	!	!	!LO:TX:t=P:problem=w źródle kreska nad nutą [przyjęto kropkę]	!	!	!
4E\	.	.	.	2.g\	.	1b	Do-
4F\	.	.	.	.	.	.	.
1G	.	2.d\)	.	.	.	.	.
.	.	.	.	4g\	-mi-	.	.
*	*	*	*	*	*	*col	*
.	.	.	.	1e	-ne	2.a\	.
.	.	4d\	-mi-	.	.	.	.
!LO:TX:a:t=P:problem=# above	!	!	!	!	!	!	!
2F#Xi\	mi-	(<2A/	-ne	.	.	.	.
*	*	*	*	*	*	*Xcol	*
*	*	*	*	*	*	*Xlig	*
.	.	.	.	.	.	4a\	-mi-
=57-	=57-	=57-	=57-	=57-	=57-	=57-	=57-
2G\	-ne	2B\)	.	2r	.	2g/	-ne
1Fny	ter-	1c	ter-	1f	ter-	2a\	ter-
.	.	.	.	.	.	2a\	-ra(m)
2A\	-ra(m)	2c\	-ra(m)	2e\	-ra(m)	1cc\	tu-
=58-	=58-	=58-	=58-	=58-	=58-	=58-	=58-
1G	tu-	1d	tu-	1g	tu-	.	.
.	.	.	.	.	.	2b\	.
!	!	!	!	!	!	!LO:LB:g=original	!
2C/	-a(m)	2e\	-a(m)	2g\	-a(m)	2cc\	.
1F\	a-	2c\	a-	2f\	a-	1a\	-am
!	!	!	!	!LO:PB:g=original	!	!	!
=59-	=59-	=59-	=59-	=59-	=59-	=59-	=59-
.	-ver-	2A/	-ver-	2d\	-ver-	.	.
2E\	.	4c\	-ti-	2e\	.	2g/	a-
.	.	4B\	.	.	.	.	.
2F\	.	2A/	.	2c\	-ti-	2a\	-ver-
2D/	.	2F/	.	1f\	.	2b\	.
!	!	!LO:LB:g=original	!	!	!	!	!
=60-	=60-	=60-	=60-	=60-	=60-	=60-	=60-
1C	-ti-	2G/	-ſti	.	.	1cc	-ti-
.	.	2c\	Ca-	2e\	.	.	.
2FF/	-ſti	2A/	-pti-	1f	-ſti	1cc	-ſti
2F\	Ca-	2A/	-vi-	.	.	.	.
!LO:LB:g=original	!	!	!	!	!	!	!
=61-	=61-	=61-	=61-	=61-	=61-	=61-	=61-
2D/	-pti-	1d	-ta-	2re	.	2rb	.
2D/	-vi-	.	.	2f\	Ca-	2dd\	ca-
1G	-ta-	1B	-te(m)	2d\	-pti-	2dd\	-pti-
.	.	.	.	2d\	-vi-	2b\	-vi-
=62-	=62-	=62-	=62-	=62-	=62-	=62-	=62-
1E	-te(m)	2rF	.	1g	-ta-	1cc	-ta-
.	.	2G/	a-	.	.	.	.
2rBB	.	2E/	-ver-	1e	-te(m)	1cc	-te(m)
2C/	a-	2E/	-ti-	.	.	.	.
=63-	=63-	=63-	=63-	=63-	=63-	=63-	=63-
1AA	-ver-	2A/	-ſti	2r	.	2r	.
.	.	2A/	Ca-	2c/	a-	2a\	a-
!	!	!LO:TX:b:t=P:problem=# below	!	!	!	!	!
2D/	-ti-	2F#X/	-pti-	2A/	-ver-	2a\	-ver-
2D/	-ſti	2F#/	-vi-	2A/	-ti-	2a\	-ti-
=64-	=64-	=64-	=64-	=64-	=64-	=64-	=64-
1BB	Ca-	4G/	-ta-	2d\	-ſti	2b\	-ſti
.	.	4Fny/	.	.	.	.	.
.	.	4E/	.	2d\	Ca-	2b\	ca-
.	.	4D/	.	.	.	.	.
2.C/	-pti-	4E/	.	1.c	-pti-	2.g/	-pti-
.	.	4F/	.	.	.	.	.
.	.	1G/	.	.	.	.	.
4BB/	-vi-	.	.	.	.	4g/	-vi-
=65-	=65-	=65-	=65-	=65-	=65-	=65-	=65-
1AA	-ta-	.	.	.	.	1a	-ta-
.	.	2F#X/	-te(m)	2c/	-vi-	.	.
2GG/	-te(m)	2.G/	Ja-	2.Bny/	-ta-	2b\	.
1G\	Ja-	.	.	.	.	[>2b\	-te(m)
.	.	4A/	.	4c/	.	.	.
=66-	=66-	=66-	=66-	=66-	=66-	=66-	=66-
.	.	4B\	.	1d	-te(m)	2b\]	.
.	.	4c\	.	.	.	.	.
4F\	.	1d	.	.	.	4a\	.
4E\	.	.	.	.	.	4g\	.
!	!	!	!	!	!	!LO:TX:b:t=P:problem=# below	!
0D	.	.	.	2r	.	2f#X/	Ja-
.	.	4c\	.	2.d\	Ja-	1g\	.
.	.	4B\	.	.	.	.	.
=67-	=67-	=67-	=67-	=67-	=67-	=67-	=67-
.	.	1A	.	.	.	.	.
.	.	.	.	4A/	.	.	.
!	!	!	!	!	!	!LO:TX:b:t=P:problem=# below	!
.	.	.	.	2d\	.	2f#X/	.
!LO:TX:t=P:problem=w źródle fermata nad i pod nutą	!	!LO:TX:t=P:problem=w źródle fermata nad i pod nutą	!	!	!	!	!
!	!	!	!	!LO:TX:t=P:problem=w źródle fermata nad i pod nutą	!	!LO:TX:t=P:problem=w źródle fermata nad i pod nutą	!
!LO:N:vis=0	!	!	!	!LO:N:vis=0	!	!	!
1GG;;	-cob	1B;;	-cob.	1d;;	-cob.	1g;;	-cob
!	!	!	!	!	!	!LO:LB:g=original	!
=68-	=68-	=68-	=68-	=68-	=68-	=68-	=68-
*M2/1	*	*M2/1	*	*M2/1	*	*M2/1	*
*	*	*lig	*	*	*	*	*
!LO:TX:t=P:problem=w źródle inicjał G na początku części	!	!	!	!	!	!	!
!	!	!LO:TX:t=P:problem=w źródle inicjał G na początku części	!	!LO:TX:t=P:problem=w źródle inicjał G na początku części	!	!	!
!	!	!	!	!	!	!LO:TX:t=P:problem=w źródle inicjał G na początku pięciolinii	!
1r	.	1G	Glo-	0r	.	00r	.
*lig	*	*	*	*	*	*	*
1D	Glo-	1A	-ri-	.	.	.	.
*	*	*Xlig	*	*	*	*	*
!	!	!LO:LB:g=original	!	!	!	!	!
=69-	=69-	=69-	=69-	=69-	=69-	=69-	=69-
1E	.	1G	-a	1r	.	.	.
!	!	!	!	!LO:LB:g=original	!	!	!
*Xlig	*	*	*	*lig	*	*	*
1D	-ri-	4Fny/	.	1d	glo-	.	.
.	.	4G/	.	.	.	.	.
.	.	4A/	.	.	.	.	.
.	.	4B/	.	.	.	.	.
=70-	=70-	=70-	=70-	=70-	=70-	=70-	=70-
4C/	-a	4c\	.	1e	.	1r	.
4D/	.	4G/	.	.	.	.	.
4E\	.	1c	.	.	.	.	.
*custos:G	*	*	*	*	*	*	*
4F\	.	.	.	.	.	.	.
*	*	*	*	*Xlig	*	*lig	*
!LO:LB:g=original	!	!	!	!	!	!	!
4G\	.	.	.	1.d	.	1g	Glo-
4D\	.	.	.	.	.	.	.
1G\	.	2B\	.	.	.	.	.
=71-	=71-	=71-	=71-	=71-	=71-	=71-	=71-
.	.	1A	Pa-	.	.	1a	.
2F\	.	.	.	2d\	-ri-	.	.
*	*	*	*	*	*	*Xlig	*
1E	Pa-	4B\	.	1e	-a	1g	-ri-
.	.	4A\	.	.	.	.	.
.	.	4B\	.	.	.	.	.
.	.	4c\	.	.	.	.	.
=72-	=72-	=72-	=72-	=72-	=72-	=72-	=72-
*lig	*	*	*	*	*	*	*
1D	.	1d	-tri	2r	.	4fny/	-a
.	.	.	.	.	.	4g/	.
.	.	.	.	1f	glo-	4a\	.
.	.	.	.	.	.	4b\	.
1C	.	2r	.	.	.	4cc\	.
.	.	.	.	.	.	4g\	.
*	*	*	*ij	*	*	*	*
.	.	2c\	Glo-	2e\	-ri-	1cc\	.
*Xlig	*	*	*	*	*	*	*
=73-	=73-	=73-	=73-	=73-	=73-	=73-	=73-
!	!	!	!	!LO:TX:a:t=P:problem=# above	!	!	!
0D	.	2A/	-ri-	2f#Xi\	-a	.	.
.	.	2G/	-a	1g	Pa-	2b\	Pa-
.	.	1A	Pa-	.	.	1a	.
!	!	!	!	!LO:TX:a:t=P:problem=# above	!	!	!
.	.	.	.	2f#Xi\	.	.	.
=74-	=74-	=74-	=74-	=74-	=74-	=74-	=74-
2GG/	-tri	2B/	-tri	1g	-tri	1g	-tri
*	*	*	*Xij	*	*	*	*
2C/	et	2G/	et	.	.	.	.
2.C/	Fi-	2.G/	Fi-	2r	.	2r	.
.	.	.	.	2e\	et	2cc\	et
4C/	-li-	4G/	-li-	.	.	.	.
=75-	=75-	=75-	=75-	=75-	=75-	=75-	=75-
1C	-o	1G	-o	2.e\	Fi-	2.cc\	Fi-
.	.	.	.	4e\	-li-	4cc\	-li-
2r	.	2r	.	1fny	-o	1cc	-o
2F\	et	2A/	et	.	.	.	.
=76-	=76-	=76-	=76-	=76-	=76-	=76-	=76-
2.F\	Spi-	2.A\	Spi-	2r	.	2rb	.
.	.	.	.	2f\	et	2cc\	et
4G\	-ri-	4B\	-ri-	.	.	.	.
2A\	-tu-	2c\	-tu-	2e\	Spi-	2.a\	Spi-
2F\	-i	2A/	-i	2f\	-ri-	.	.
.	.	.	.	.	.	4cc\	-ri-
=77-	=77-	=77-	=77-	=77-	=77-	=77-	=77-
1G	S(an)-	4B\	San-	4d\	-tu-	4b\	-tu-
.	.	2c\	.	4c\	-i	4g\	-i
.	.	.	.	2d\	S(an)-	2dd\	S(an)-
.	.	4B\	.	.	.	.	.
2C/	-cto	1c	-cto	2e\	-cto	2cc\	-cto
1F\	Si-	.	.	2c/	Si-	(>2.a\	Si-
=78-	=78-	=78-	=78-	=78-	=78-	=78-	=78-
.	.	2r	.	(>2d\	-cut	.	.
.	.	.	.	.	.	4b\)	.
!	!	!	!	!	!	!LO:LB:g=original	!
!	!	!	!	!	!	!LO:TX:t=P:global:problem=kreska oddechu na różnych liniach [rozdzielacz słów / znak oddechu]	!
2E\	-cut	1c	Si-	2e\)	.	2cc,<\	-cut
1D	e-	.	.	1f	e-	1dd	e-
.	.	2B\	-cut	.	.	.	.
!	!	!LO:LB:g=original	!	!	!	!	!
=79-	=79-	=79-	=79-	=79-	=79-	=79-	=79-
2C/	-rat	(>2.c\	e-	2e\	-rat	2g/	-rat
*	*ij	*	*	*	*	*	*
1C	Si-	.	.	2.e\	Si-	2g/	Si-
.	.	4B\)	.	.	.	.	.
.	.	2A/	.	.	.	(>2a\	-cut
.	.	.	.	4f\	.	.	.
*	*	*	*	*custos:a	*	*	*
2BB/	-cut	2.G/	.	2g\	-cut	2b\)	.
!	!	!	!	!LO:LB:g=original	!	!	!
=80-	=80-	=80-	=80-	=80-	=80-	=80-	=80-
1AA	e-	.	.	1a	e-	1cc	e-
!	!	!LO:TX:b:t=P:problem=# below	!	!	!	!	!
.	.	8F#X/L	.	.	.	.	.
.	.	8E/J	.	.	.	.	.
!	!	!LO:TX:a:t=P:problem=# above	!	!	!	!	!
.	.	2F#Xi/	.	.	.	.	.
2GG/	-rat	2G/	-rat	0d	-rat	1b	-rat
*	*Xij	*	*	*	*	*	*
1G\	In	1B\	in	.	.	.	.
=81-	=81-	=81-	=81-	=81-	=81-	=81-	=81-
.	.	.	.	.	.	2r	.
*custos:G	*	*	*	*	*	*	*
2F\	prin-	2A\	Prin-	.	.	1dd	In
!LO:LB:g=original	!	!	!	!	!	!	!
2.G\	-ci-	2.B\	-ci-	2r	.	.	.
.	.	.	.	1d\	in	2b\	p(rin)-
4G\	-pi-	4B\	-pi-	.	.	.	.
=82-	=82-	=82-	=82-	=82-	=82-	=82-	=82-
2D/	-o	1A	-o	.	.	2.a\	-ci-
*	*ij	*	*	*	*	*	*
1F	in	.	.	2c/	p(rin)-	.	.
.	.	.	.	.	.	4a\	-pi-
.	.	2r	.	2d\	-ci-	1g	-o
2E\	prin-	2c\	et	2e\	-pi-	.	.
=83-	=83-	=83-	=83-	=83-	=83-	=83-	=83-
2.F\	-ci-	1A	N(un)c	2c/	-o	2r	.
.	.	.	.	2f\	et	2cc\	et
4F\	-pi-	.	.	.	.	.	.
2C/	-o	2G/	et	1e	n(u)nc	2cc\	Nunc
*	*Xij	*	*	*	*	*	*
2AA/	et	2A/	S(em-	.	.	2cc\	et
=84-	=84-	=84-	=84-	=84-	=84-	=84-	=84-
2BB/	Nunc	2G/	-p(e)r	2d\	et	4b\	Sem-
.	.	.	.	.	.	4a\	.
2C/	et	2c\	et	2e\	S(em)-	2.g/	.
1D	S(em)-	1A	S(em-	1d	-p(e)r	.	.
!	!	!	!	!	!	!LO:TX:b:t=P:problem=# below	!
.	.	.	.	.	.	8f#X/L	.
.	.	.	.	.	.	8e/J	.
!	!	!	!	!	!	!LO:TX:a:t=P:problem=# above	!
.	.	.	.	.	.	2f#Xi/	.
=85-	=85-	=85-	=85-	=85-	=85-	=85-	=85-
2GG/	-p(e)r	1B	-p(e)r	2rA	.	4g\	.
.	.	.	.	.	.	4a\	.
1G	et	.	.	1d	et	4b\	.
.	.	.	.	.	.	4cc\	.
.	.	2r	.	.	.	2dd\	-per
2F\	in	2A/	et	2d\	in	1dd\	et
=86-	=86-	=86-	=86-	=86-	=86-	=86-	=86-
2.E\	Se-	1G	in	2.e\	Se-	.	.
*	*	*	*	*	*	*custos:dd	*
!	!	!	!	!	!	!LO:TX:a:t=P:problem=# above	!
.	.	.	.	.	.	2cc#Xi\	in
4E\	-cu-	.	.	4e\	-cu-	.	.
!	!	!	!	!	!	!LO:LB:g=original	!
2D/	-la	2.A/	Se-	1f	-la	2.dd\	Se-
1F\	Se-	.	.	.	.	.	.
.	.	4A/	-cu-	.	.	4dd\	-cu-
=87-	=87-	=87-	=87-	=87-	=87-	=87-	=87-
.	.	2A/	-la	2a\	Se-	2a\	-la
2E\	-cu-	2c\	Se-	2g\	-cu-	2.ccny\	Se-
2D/	-lo-	2d\	-cu-	2f\	-lo-	.	.
.	.	.	.	.	.	4b\	-cu-
2C/	-ru(m)	4e\	-lo-	2e\	-ru(m)	4cc\	-lo-
.	.	4c\	.	.	.	8dd\L	-ru(m)
.	.	.	.	.	.	8ee\J	.
=88-	=88-	=88-	=88-	=88-	=88-	=88-	=88-
1G	A-	4B\	-ru(m)	1g	A-	1dd	A-
.	.	2c\	a-	.	.	.	.
.	.	4B\	.	.	.	.	.
!	!	!LO:LB:g=original	!	!	!	!	!
2C/	-men	2c\	-men	2e\	-men	2cc\	-men
1C/	Se-	1G/	Sae-	1c\	Se-	1ee\	Se-
=89-	=89-	=89-	=89-	=89-	=89-	=89-	=89-
.	.	.	.	.	.	.	.
2BB/	-cu-	2B\	-cu-	2d\	-cu-	2dd\	-cu-
2AA/	-lo-	2c\	-lo-	4e\	-lo-	2cc\	-lo-
.	.	.	.	4f\	.	.	.
2GG/	-ru(m)	2d\	-ru(m)	1g\	.	2b\	-ru(m)
=90-	=90-	=90-	=90-	=90-	=90-	=90-	=90-
1D	A-	1d	A-	.	.	1a	A-
.	.	.	.	2f\	.	.	.
1GG	-men	1B	-men	1g	-ru(m)	1b	-men
!LO:LB:g=original	!	!	!	!	!	!	!
=91-	=91-	=91-	=91-	=91-	=91-	=91-	=91-
*	*	*	*ij	*	*	*	*
1C	A-	1G	A-	1.e	A-	1.cc	A-
!LO:N:vis=0	!	!LO:N:vis=0	!	!	!	!	!
0.GG;>	-men.	0.G;>	-men	.	.	.	.
.	.	.	.	4d\	.	4b\	.
.	.	.	.	4c\	.	4a\	.
=92-	=92-	=92-	=92-	=92-	=92-	=92-	=92-
!	!	!	!	!LO:TX:t=P:problem=w źródle fermata nad i pod nutą	!	!	!
!	!	!	!	!	!	!LO:TX:t=P:problem=w źródle fermata nad i pod nutą	!
!	!	!	!	!LO:N:vis=0	!	!	!
.	.	.	.	0d;;	-m(en)	0b;;	-men.
*	*	*	*Xij	*	*	*	*
==	==	==	==	==	==	==	==
*-	*-	*-	*-	*-	*-	*-	*-
!!!system-decoration: [(s1,s2,s3,s4)]
!!!RDF**kern: > = above
!!!RDF**kern: < = below
!!!RDF**kern: | = vertical stroke
!!!RDF**kern: N = linked
!!!RDF**kern: i = editorial accidental
!!!RDF**kern: l = terminal long
!!!EED: Wojciech Jakubiak-Danek
!!!EEV: 2021-07-27
!!!ENC: Andrzej Kubiczek
!!!END: 2021-07-15
